build/category/KeysOutline.svg

<svg xmlns="http://www.w3.org/2000/svg" fill="none" viewBox="0 0 24 24" focusable="false"><path d="M0 0H24V24H0z"/><path fill="#74767B" fill-rule="evenodd" d="M18.8247 6.79028C19.1836 6.79028 19.4746 6.49927 19.4746 6.14026C19.4746 5.78125 19.1836 5.49023 18.8247 5.49023L14.2866 5.49023C12.6577 5.49023 11.3369 6.81104 11.3369 8.44019L11.3369 8.71875L2.87061 8.71875C2.51172 8.71875 2.2207 9.00977 2.2207 9.36877C2.2207 9.72778 2.51172 10.0188 2.87061 10.0188L12.0005 10.0188C12.3594 10.0188 12.6504 9.72778 12.6504 9.36877C12.6504 9.32288 12.646 9.25867 12.6367 9.21545L12.6367 8.44019C12.6367 7.52893 13.3755 6.79028 14.2866 6.79028L18.8247 6.79028ZM21.916 10.927C21.916 9.29773 20.5952 7.97705 18.9658 7.97705L16.5283 7.97705C14.8989 7.97705 13.5781 9.29773 13.5781 10.927L13.5781 11.2056L4.84131 11.2056C3.91309 11.2056 3.18408 12.001 3.26514 12.9257C3.39111 14.3691 4.59961 15.4768 6.04883 15.4768L6.40283 15.4768C6.55225 15.4768 6.69727 15.4252 6.81299 15.3308L7.61133 14.681C7.79932 14.5282 8.06494 14.5161 8.26562 14.6515L9.96826 15.7985C10.0757 15.8707 10.2021 15.9094 10.3315 15.9094L13.5781 15.9094L13.5781 16.1233C13.5781 17.7524 14.8989 19.0732 16.5283 19.0732L18.9658 19.0732C20.5952 19.0732 21.916 17.7524 21.916 16.1233L21.916 10.927ZM18.9658 9.27698C19.877 9.27698 20.6157 10.0157 20.6157 10.927L20.6157 16.1233C20.6157 17.0344 19.877 17.7733 18.9658 17.7733L16.5283 17.7733C15.6172 17.7733 14.8784 17.0344 14.8784 16.1233L14.8784 10.927C14.8784 10.0157 15.6172 9.27698 16.5283 9.27698L18.9658 9.27698ZM17.5566 15.2775C17.5566 15.6365 17.8477 15.9275 18.2065 15.9275C18.5654 15.9275 18.8564 15.6365 18.8564 15.2775L18.8564 12.0411C18.8564 11.6821 18.5654 11.3911 18.2065 11.3911C17.8477 11.3911 17.5566 11.6821 17.5566 12.0411L17.5566 15.2775ZM13.5781 14.6094L13.5781 12.5056L4.84131 12.5056C4.67578 12.5056 4.54541 12.6475 4.56006 12.8125C4.62744 13.5844 5.27393 14.1768 6.04883 14.1768L6.17139 14.1768L6.79053 13.6729C7.42236 13.1584 8.31641 13.118 8.99219 13.5734L10.5298 14.6094L13.5781 14.6094Z"/></svg>

<svg xmlns="http://www.w3.org/2000/svg" fill="none" viewBox="0 0 24 24" focusable="false"><path fill="#74767B" fill-rule="evenodd" d="M18.82 6.79c.36 0 .65-.3.65-.65 0-.36-.29-.65-.65-.65h-4.54c-1.63 0-2.95 1.32-2.95 2.95v.27H2.87c-.36 0-.65.29-.65.65s.29.65.65.65H12c.35 0 .65-.29.65-.65 0-.04-.01-.11-.02-.15v-.77c0-.92.74-1.65 1.65-1.65zm3.09 4.13c0-1.63-1.32-2.95-2.95-2.95h-2.44c-1.63 0-2.95 1.32-2.95 2.95v.28H4.84c-.93 0-1.66.8-1.58 1.72a2.795 2.795 0 0 0 2.78 2.55h.36c.15 0 .29-.05.41-.14l.8-.65c.18-.16.45-.17.65-.03l1.7 1.14c.11.08.24.11.37.11h3.24v.22c0 1.63 1.32 2.95 2.95 2.95h2.44c1.63 0 2.95-1.32 2.95-2.95zm-2.95-1.65c.91 0 1.65.74 1.65 1.65v5.2c0 .91-.74 1.65-1.65 1.65h-2.44c-.91 0-1.65-.74-1.65-1.65v-5.2c0-.91.74-1.65 1.65-1.65zm-1.41 6c0 .36.29.65.65.65s.65-.29.65-.65v-3.23c0-.36-.29-.65-.65-.65s-.65.29-.65.65zm-3.98-.67v-2.1H4.84c-.17 0-.3.14-.28.31.06.77.71 1.36 1.48 1.36h.13l.62-.5c.63-.52 1.52-.56 2.2-.1l1.53 1.03z"/></svg>
